X: 120874
T: Limerick Minstrel
S: "First Collection of Traditional Irish Music" (M.Mulvihill)
Z: B.Black
L: 1/8
M: 4/4
R: reel
K: G
B2 GA Bcdg|egdB cAAc|BDGB cBcA|(3Bcd gd BGGA|
(3Bcd Bd ceAc|(3Bcd Bd cAAc|BDGB cBcA|(3Bcd gd BGga||
bgaf g2 fg|eaag a2 ga|bgaf gfed|cdef g3 a|
bg (3gfg ageg|eaag a3 b|c'abg agef|gbaf gedc||
